X:1
T:Title
%%score { ( 1 4 ) | ( 2 3 ) }
L:1/8
M:3/4
K:A
V:1 treble nm="Grand Piano"
V:4 treble 
V:2 bass 
V:3 bass 
V:1
 z2 z2[Q:1/4=100] [Ac]2 | [Ac]2 c2 [=cf]2 | [ce]4 [Gd]2 | [Ac]4 [GB]2 | A4 [Ac]2 | [Be]4 [GB]2 | %6
 [Ac]4 [Ac]2 | c2 B2 [FA]2 | G4 [GB]2 | [Ac]4 [Ac]2 | [Gd]4 [Gd]2 | e2- [ce]2 [B^e]2 | %12
 [Af]4 [Gd]2 | [Ac]4 [Ac]2 | [Ac]4 B2 | A6- | A4 z2 | B4 AB | c4 [EB]2 |[M:6/4] .[EA]6 z6 | %20
[M:3/4] [FA]6 | [EA]6 |] %22
V:2
 z2 z2 [A,,E,]2 | [A,,E,]4 [A,,^D,]2 | [A,,E,]4 [B,,E,]2 | E,4 z2 | [A,,C,]4 [A,,E,]2 | %5
 [G,,E,]4 E,2 | [A,,E,]4 [C,E,]2 | [D,F,]4 [^D,F,]2 | E,4 E,2 | [A,,E,]4 [A,,E,]2 | %10
 [B,,E,]4 [B,,E,]2 | C,2- [C,A,]2 [C,G,]2 | [D,F,]4 [B,,E,]2 | [A,,E,]4 [A,,E,]2 | [A,,E,]4 z2 | %15
 z2 z2 D,2 | D,4 z2 | z6 | z2 z2 [E,,D,]2 |[M:6/4] .[A,,C,]6 z6 |[M:3/4] D,6 | [A,,C,]6 |] %22
V:3
 x6 | x6 | x6 | C,2 D,2 E,2 | x6 | x6 | x6 | x6 | x6 | x6 | x6 | E,2 z2 z2 | x6 | x6 | x6 | x6 | %16
 x6 | x6 | x6 |[M:6/4] x12 |[M:3/4] x6 | x6 |] %22
V:4
 x6 | x6 | x6 | x6 | x6 | x6 | x6 | F4 z2 | x6 | x6 | x6 | A2 z2 z2 | x6 | x6 | x6 | z2 z2 F2 | %16
 F4 B2 | x6 | x6 |[M:6/4] x12 |[M:3/4] x6 | x6 |] %22

